X: 510
T: Cefâsı Âşıka Yârin
C: Dellalzâde İsmail Efendi
O: Turkey
F: http://compmusic.upf.edu/node/140
N: buselik--nakis--yuruksemai--cefasi_asika--dellalzade_haci_ismail_efendi
N: makam= buselik
N: form= nakis
N: usul= yuruksemai = 6/8
M: 6/8
L: 1/16
K: C    
Q: 1/4=96
%%MIDI tuningsystem comma53
G4c4 c2e2d2c2 B8  | e2d2c2B2 c2B2A2^G2 A6z2  | \
w:  Ce fâ *  *  sı  *  â  |  şı *  ka  *  yâ *  *  *  rin   | 
c4d3_7/8e d2e2c4 g2^f2e2d2  | 
w:  ve fâ  *  *  *  de ğil   | 
_7/8e2d2c2B2 c4d4 e6z2  | d4e4 a4g2f2 e6z2  | \
w:  de  *  ne *  dir    |  Ga zap *  la  *  bir   | 
e4d4 {e}d2f2e2d2 c2B2A2B2  | 
w:  ni gâ *  hı  *  *  *  da   | 
G4c4 {d}c2e2d2c2 B8  | e2d2c2B2 A2B2c2d2 e6z2  | \
w:  sa fâ  *  *  *  de *  ğil   |  de  *  ne *  dir    | 
d4e4 a4g2f2 {g}e6z2  | 
w:  Ga zap *  la  *  *  bir   | 
e4d4 {e}d2f2e2d2 c2B2A2B2  | G4c4 {d}c2e2d2c2 B8  | \
w:  ni gâ *  hı  *  *  *  da   |  sa fâ  *  *  *  de *  ğil   | 
e2d2c2B2 A8 {A}G4^3/4F4  | 
w:  de  *  ne *  dir    | 
A8 z4d2{e}c2 B4A4  | G3AG4 A4B4 c8  | \
w:  Vay  vay   |  *  *  ta  dir  dir  ten   | 
d2e2d2c2 d4e4 e6z2  | d4d2a2 a2g2g2f2 f2e2d2e2  | 
w:  na  *  *  *  til  lil  ten   |  det  de  re  dil  *  li  *  ney    | 
e2{f}d2d2{e}c2 c2{d}B2B2{c}A2 B2A2G2{A}^3/4F2  | \
w:  Vay   | 
G8 A4B4 c6z2  | d2e2d2c2 d4e4 e6z2  | 
w:  ta  dir  dir  ten   |  na  *  *  *  til  lil  ten   | 
d4d2a2 a2g2g2f2 f2e2{f}d2e2  | e12c'2b2 a4z4  | \
w:  det  de  re  dil  *  li  *  ney   |  vay   Ah   | 
g2^3/4f2a8g2f2 e8  | 
w:  sa *  na  bu  *  cân_  | 
e2d2c4 d2f2e2d2 c2B2A2B2  | ^3/4F4G4 A4B4 A3BA2G2  | \
w:  ü  *  di li  *  *  *  ver  |  dim  ey  şûh_ *  i   | 
^3/4F8 E8 c8  | 
w:  dev ran  ah   | 
c8 c2B2B2A2 e3fe2d2  | g^f_3/4edc8z4 g8  | \
w:  *  *  *  *  *  ah    |  *  *  *  *  *  Kur  | 
g2f6 f2e2e2d2 e2f2{g}f2e2  | 
w:  ba *  nın  *  o *  lam   | 
e12z4 e8  | f2g2f2g2 e4f4 g2_7/8a_1/4ba2g2  | \
w:  yâr  hay  |  ra *  *  *  nın  o lam    | 
g2{a}^f2a8g2^3/4f2 {g}e8  | e2d2c4 d2f2e2{f}d2 c2{d}B2A2B2  | 
w:  Sa *  *  na  bu  *  *  cân_  |  ü  *  di li  *  *  *  *  ver  | 
^3/4F4G4 A4B4 A3BA2{B}G2  | ^3/4F8 E8 c8  | \
w:  dim  ey  şûh_ *  i   |  dev ran  ah   | 
c8 c2B2B2A2 e3fe2d2  | g^f_7/8edc8z4 g8  | 
w:  *  *  *  *  *  ah    |  *  *  *  *  *  Kur  | 
g2f6 f2e2e2d2 e2f2{g}f2e2  | e12z4 e8  | \
w:  ba *  nın_ *  o *  lam   |  yâr  hay  | 
f2g2f2g2 e4f4 g2_7/8a_1/4ba2g2  | 
w:  ra *  *  *  nın  o lam   | 
^f4g16z4  | f4g4 g8 g2_7/8a2g2f2  | g2_7/8a2{d'}c'2_1/4b2 a2g2f2e2 {g}f8  | \
w:  dost    |  Ey  şah_ ı  mülk_  |  i  *  *  hüsn_ *  *  *  *  ü  *  an   | 
z4f4 a4g4 f4e4  | 
w:  ben de  i  üf  | 
d8 d2f2e2d2 {e}c8  | c2B2{c}A2G2 A4B4 {c}B2c2d2c2  | \
w:  tâ *  *  de  *  *  ne  |  râ *  *  *  *  hı na  *  kur  | 
c12c2d2 e8  | c4d8e2f2 e2d2{e}c4  | 
w:  ban  *  vay    |  Gel   | 
z4c2d2 g2f2{g}e2d2 {e}c2B2A4  | B2c2d4 c2B2A4 ^G2A2BcBA  | 
w:  gel   |  ben *  *  de  *  i  lût  | 
A12c2d2 e8  | c4d8e2f2 e2d2c4  | z4c2d2 g2f2{g}e2d2 {e}c2B2{c}A4  | 
w:  fun  vay    |  Gel   |  gel   | 
B2c2d4 c2B2A4 ^G2A2BcBA  | A12c2d2 e8  | \
w:  lût *  *  fu *  na  kur  |  ban  vay    | 
c4d8e2f2 e2d2c4  | 
w:  Gel   | 
z4c2d2 g2f2e2{f}d2 c2{d}B2A4  | B2c2d4 c2B2A4 ^G2A2BcBA  | 
w:  gel   |  lût *  *  fu *  na  kur  | 
A16 z8  | |


